X: 57
T: Praeludia organi op. 5 – Largo
C: Franciszek Walczyński
%%abc-version 2.0
%%abcx-abcm2ps-target-version 5.9.1 (29 Sep 2008)
%%abc-creator hum2abc beta
%%abcx-conversion-date 2021/10/04 07:38:38
%%abc-edited-by Andrzej Borzym
%%abc-edited-by Krzysztof Stępień
%%abcx-initial-encoding-date 2021-07-26
%%humdrum-veritas 131819637
%%humdrum-veritas-data 814095419
%%linebreak <none>
%%barnumbers 0
L: 1/8
M: 2/4
N: Derived from pl-kozmzk--mzk-m-159--046_walczynski-franciszek--praeludia-organi-op-5-largo.krn
Q: "46. Largo."
%%staves {1 2}
V: 1 clef=treble
V: 2 clef=bass
K: Eb
[V:1] z4 & z4 | 
[V:2] z4 & C,2E,2 | 
[V:1] z4 & z4 | 
[V:2] z4 & D,2A,2 | 
[V:1] z4 & z4 | 
[V:2] z4 & G,F,E,D, | 
[V:1] z4 & z4 | 
[V:2] C2E2 & C,4 | 
[V:1] z4 & z4 | 
[V:2] D2A2 & =B,,4 | 
[V:1] z4 & z4 | 
[V:2] GFED & G,,2=A,,=B,, | 
[V:1] z4 & z4 | 
[V:2] EDC2 & C,D,E,2 | 
[V:1] z4 & z4 | 
[V:2] =B,4 & A,2G,F, | 
[V:1] z4 & C2E2 | 
[V:2] G,4 & E,2C,2 | 
[V:1] z4 & D2A2 | 
[V:2] A,2=B,2 & F,4 | 
[V:1] z4 & GFED | 
[V:2] C=B,C3/B,/ & E,D,C,G, | 
[V:1] c2e2 & G4- | 
[V:2] C4- & E,2C,2 | 
[V:1] d2a2 & G4 | 
[V:2] C4 & F,4 | 
[V:1] gfed & G3A | 
[V:2] =B,DC2 & G,=B,, C,F, | 
[V:1] c2=B2 & G3F | 
[V:2] E2D2 & G,2G,,2 | 
[V:1] c4- & E2=E2 | 
[V:2] C2_B,2 & C,4- | 
[V:1] c4- & F2A2 | 
[V:2] A,2F,2 & C,4- | 
[V:1] c4- & GFED | 
[V:2] E,D,G,F, & C,4- | 
[V:1] !fermata!c4 & C4 |]  
[V:2] E,4 & !fermata!C,4 |]  


